X:1
T:Olney (Statham), LM
T:Olney (Statham), LM
T:William Statham (1832-1898)
T:Public Domain Courtesy of the Cyber Hymnal™
C:William Statham (1832-1898)
Z:Public Domain
Z:Courtesy of the Cyber Hymnal™
%%score ( 1 2 ) ( 3 4 )
L:1/8
M:3/4
K:Bb
V:1 treble 
V:2 treble 
V:3 bass 
V:4 bass 
V:1
 [DF]2 | F4 [B,E]2 | D4 [FB]2 | (B2 A2) [EG]2 | F4 [CF]2 | [EB]4 [Ee]2 | [Fd]4 [Fc]2 | %7
 ([GB]2 [FA]2) [=EG]2 | F4 [Fc]2 | [Ec]4 [DB]2 | [CA]4 [Fd]2 | [Fd]4 [Fc]2 | [Ae]4 [Ce]2 | %13
 [Fd]4 c2 | B4 [FA]2 | (G2 c2) [CA]2 | [DB]4 |] %17
V:2
 x2 | (D2 C2) x2 | (B,2 D2) x2 | E4 x2 | (D2 C2) x2 | x6 | x6 | x6 | F4 x2 | x6 | x6 | x6 | x6 | %13
 x4 (GA) | (B2 DE) x2 | E4 x2 | x4 |] %17
V:3
 [B,,B,]2 | (B,2 A,2) [B,,G,]2 | [B,,F,]4 [D,F,]2 | (G,2 C2) [E,B,]2 | (B,2 A,2) [E,A,]2 | %5
 (B,2 F,2) (G,A,) | [B,,B,]4 [A,,C]2 | ([B,,D]2 [C,C]2) [C,B,]2 | [F,A,]4 [F,A,]2 | %9
 [F,A,]4 [F,B,]2 | (E2 C2) [F,B,]2 | [F,B,]4 [F,A,]2 | [F,C]4 [C,C]2 | (C2 B,2) E2 | %14
 (D2 G,2) (A,B,) | ([E,C]2 [C,G,]2) F,2 | [B,,F,]4 |] %17
V:4
 x2 | B,,4 x2 | x6 | E,4 x2 | F,4 x2 | D,4 C,2 | x6 | x6 | x6 | x6 | F,4 x2 | x6 | x6 | %13
 D,4 (E,F,) | G,4 D,2 | x4 F,2 | x4 |] %17

